!!!OTL: Die verkaufte Muellerin Es wollt ein Mueller frueh aufstehn,
!!!ARE: Europa, Mitteleuropa, Deutschland / France, Lothringen
!!!YOR: 4, S. 344
!!    1926 gedruckt in Heidelberg
!!!SCT: Q0086R
!!!YEM: Copyright 1995, estate of Helmut Schaffrath.
**kern
*ICvox
*Ivox
*M3/4
*k[f#]
*G:
{8g
8g
8b
=1
4dd
4dd
8ee
8dd
=2
4.cc}
{8b
8dd
8b
=3
4.g
8g
8b
8dd
=4
4a
8r}
{8g
8g
8b
=5
4.dd
8dd
8ee
16dd
16dd
=6
4.cc}
{8b
8dd
8b
=7
4.g
8g
8b
8dd
=8
4a
8r}
{8d
8d
8d
=9
8cc
8cc
4cc
8a
8cc
=10
8b
8a
8g}
==
!!!AGN: Ballade, Menschenhandel, Rettung, Hinrichtung
!!!ONB: ESAC (Essen Associative Code) Database: BALLADE
!!!AMT: simple triple
!!!AIN: vox
!!!EED: Helmut Schaffrath
!!!EEV: 1.0
*-
